resources/svg/netlify.svg

<svg width="15" height="15" viewBox="0 0 15 15" fill="none" xmlns="http://www.w3.org/2000/svg">
<path d="M7.14645 0.146447C7.34172 -0.0488155 7.6583 -0.0488155 7.85356 0.146447L8.83363 1.12651L7.01342 4.06685L4.30815 2.98475L7.14645 0.146447Z" fill="black"/>
<path d="M3.53884 3.75406L2.42638 4.86652L4.71994 7.7717L6.47901 4.93012L3.53884 3.75406Z" fill="black"/>
<path d="M1.7144 5.5785L0.146455 7.14645C0.12315 7.16975 0.102626 7.19478 0.0848846 7.22113L3.60707 7.97589L1.7144 5.5785Z" fill="black"/>
<path d="M0.659968 8.36707L1.66655 9.37365L2.84238 8.83473L0.659968 8.36707Z" fill="black"/>
<path d="M2.42086 10.128L2.93996 10.6471L3.59422 9.59016L2.42086 10.128Z" fill="black"/>
<path d="M3.66637 11.3735L7.14645 14.8536C7.34172 15.0488 7.6583 15.0488 7.85356 14.8536L8.17746 14.5297L8.2957 13.9148L4.81919 9.51124L3.66637 11.3735Z" fill="black"/>
<path d="M9.43824 13.2689L11.9259 10.7812L9.99616 10.3677L9.43824 13.2689Z" fill="black"/>
<path d="M12.7681 9.93897L14.549 8.15812L10.7159 6.62489L10.185 9.38545L12.7681 9.93897Z" fill="black"/>
<path d="M14.9209 7.22983C14.9018 7.20028 14.8794 7.1723 14.8536 7.14645L12.9906 5.28349L11.6226 5.91051L14.9209 7.22983Z" fill="black"/>
<path d="M12.2363 4.52918L11.2992 3.59205L11.0109 5.0908L12.2363 4.52918Z" fill="black"/>
<path d="M10.4451 2.73797L9.56004 1.85293L7.9561 4.44392L9.96267 5.24655L10.4451 2.73797Z" fill="black"/>
<path d="M5.9983 8.48829L9.6622 6.80901L9.20703 9.17588L5.9983 8.48829Z" fill="black"/>
<path d="M6.11237 9.53544L9.01814 10.1581L8.54526 12.6171L6.11237 9.53544Z" fill="black"/>
<path d="M6.18693 7.30181L9.08617 5.97299L7.42169 5.3072L6.18693 7.30181Z" fill="black"/>
</svg>

<svg viewBox="0 0 15 15" fill="none" xmlns="http://www.w3.org/2000/svg" fill="currentColor"><path d="M7.146.146a.5.5 0 01.708 0l.98.98-1.82 2.94-2.706-1.081L7.146.146zM3.539 3.754L2.426 4.867 4.72 7.772 6.479 4.93l-2.94-1.176zM1.714 5.579L.146 7.146a.502.502 0 00-.061.075l3.522.755-1.893-2.397zM.66 8.367l1.007 1.007 1.175-.54L.66 8.368zm1.76 1.761l.52.52.654-1.058-1.173.538zm1.246 1.245l3.48 3.48a.5.5 0 00.708 0l.323-.323.119-.615L4.819 9.51l-1.153 1.863zm5.772 1.896l2.488-2.488-1.93-.413-.558 2.9zm3.33-3.33l1.781-1.78-3.833-1.534-.531 2.76 2.583.554zM14.92 7.23a.51.51 0 00-.066-.084L12.99 5.283l-1.368.628L14.92 7.23zm-2.684-2.7l-.937-.938-.288 1.499 1.225-.562zm-1.791-1.792l-.885-.885-1.604 2.59 2.007.804.482-2.509zm-4.447 5.75L9.662 6.81l-.455 2.367-3.209-.688zm.114 1.047l2.906.623-.473 2.46-2.433-3.083zm.075-2.233l2.9-1.329-1.665-.666-1.235 1.995z" fill="currentColor"/></svg>
